src/assets/transport.svg

<svg width="128" height="91" viewBox="0 0 128 91" fill="none" xmlns="http://www.w3.org/2000/svg">
<g clip-path="url(#clip0_433_312)">
<path d="M84.4935 79.9917L46.3964 80.0816C44.7365 80.0816 43.0716 80.0816 41.3968 80.1216C40.4718 79.8717 40.4919 79.0422 40.3169 78.3377C39.097 73.5506 35.3173 70.2276 30.9326 70.1276C25.708 70.0127 22.2183 72.5761 20.5634 77.703C20.2884 78.5475 20.2884 79.5369 19.4335 80.1216C14.3589 80.1216 9.28432 80.0266 4.20971 80.1216C2.53485 80.1216 2.08489 79.5769 2.08988 77.9729C2.12988 56.3559 2.12988 34.739 2.08988 13.1221C2.08988 11.3831 2.58986 10.8634 4.34972 10.8684C30.311 10.9151 56.274 10.9151 82.2386 10.8684C84.1535 10.8684 84.7384 11.4581 84.5684 13.282C84.4284 14.6811 84.5035 16.1053 84.4885 17.5194C83.1386 18.6787 81.4887 18.3739 79.9438 18.3739C57.9722 18.3939 35.9988 18.3939 14.0239 18.3739C12.9436 18.3205 11.8608 18.3674 10.7892 18.5138C10.1642 18.6287 9.65931 18.8986 9.7293 19.6431C9.7893 20.2428 10.2642 20.4377 10.7741 20.5376C11.8457 20.684 12.9286 20.7309 14.0089 20.6775C35.9838 20.6775 57.9572 20.6775 79.9288 20.6775C81.4786 20.6775 83.1236 20.3677 84.4785 21.517L84.5334 25.8744C85.2933 26.8738 85.3184 28.0381 85.3184 29.2074C85.3184 41.2701 85.3184 53.3328 85.3184 65.3955C85.3184 69.2082 84.8184 69.6429 80.9237 69.6479C70.6845 69.6479 60.4253 69.6479 50.2011 69.6479C49.2012 69.6479 48.2012 69.518 47.2513 69.9078C45.9164 70.8072 45.9014 71.8066 47.0263 72.9059C47.9812 73.4056 48.9962 73.2108 49.9812 73.2108C60.2054 73.2108 70.4295 73.2108 80.6487 73.2108C85.3083 73.2407 86.6433 75.5993 84.4935 79.9917Z" fill="#2ECC82"/>
<path d="M127.88 73.5855C128.225 80.0816 128.225 80.0816 121.716 80.0816C119.496 80.0816 117.276 80.1066 115.056 80.1216C114.086 79.397 114.121 78.2177 113.781 77.2233C112.121 72.3563 108.587 69.9377 103.327 70.1276C99.1925 70.2825 95.2929 73.6905 94.2179 78.0778C94.028 78.8523 94.123 79.7968 93.103 80.1216L88.9884 79.9966C88.0484 79.0722 88.1534 77.8629 88.1534 76.7186C88.1234 60.9315 88.1234 45.1477 88.1534 29.3672C88.1534 28.2179 88.0735 27.0137 88.9934 26.0842C94.9929 26.0842 100.957 26.0842 106.942 25.9843C107.433 25.9432 107.925 26.048 108.356 26.2853C108.787 26.5227 109.139 26.8821 109.367 27.3185C110.837 29.727 112.367 32.0906 113.866 34.4742C112.867 35.5085 111.567 35.2887 110.367 35.3037C105.962 35.3486 101.557 35.3037 97.1577 35.3336C94.5479 35.3636 94.3629 35.5685 94.3279 38.2269C94.2629 42.4593 94.3978 46.6918 94.2479 50.9242C94.3278 53.0179 95.7827 53.1479 97.3776 53.1479C105.732 53.1479 114.081 53.1479 122.436 53.1479C123.825 53.1479 125.275 52.988 126.435 54.0573C127.001 54.6458 127.434 55.3485 127.706 56.1181C127.978 56.8878 128.081 57.7066 128.01 58.5196C127.885 62.1224 127.935 65.7253 127.915 69.3331C126.72 70.5973 125.15 70.0676 123.726 70.1876C122.987 70.1817 122.249 70.2234 121.516 70.3125C120.906 70.4374 120.451 70.7173 120.451 71.4418C120.451 72.1664 120.916 72.4412 121.531 72.5561C122.751 72.766 123.991 72.6111 125.215 72.6911C126.18 72.761 127.21 72.6261 127.88 73.5855Z" fill="#126F43"/>
<path d="M93.1035 80.1265C93.5585 77.688 93.9985 75.2545 95.7333 73.2907C98.8331 69.7928 102.688 68.5186 107.157 69.7928C112.232 71.2619 114.567 75.0296 115.057 80.1116C114.612 85.1085 112.327 88.8263 107.402 90.4003C102.938 91.8295 99.058 90.5952 95.8782 87.1623C94.0333 85.1885 93.5435 82.67 93.1035 80.1265Z" fill="#353535"/>
<path d="M19.4492 80.1216C20.1342 74.3551 23.4489 70.3575 28.2985 69.498C30.6834 69.0577 33.1469 69.4154 35.3078 70.5157C37.4688 71.6159 39.2067 73.3974 40.2525 75.5843C40.9675 77.0434 40.8925 78.6475 41.4175 80.1216C40.9175 83.8993 39.5726 87.1773 36.1979 89.301C29.5934 93.4535 20.0492 89.6508 19.4492 80.1216Z" fill="#353535"/>
<path d="M84.4884 21.532C60.0403 21.532 35.5905 21.532 11.1391 21.532C9.98416 21.532 8.58428 21.9917 8.51928 19.898C8.46429 18.0641 9.01925 17.4445 10.8991 17.4645C20.4584 17.5494 30.0227 17.4994 39.5869 17.5044H84.4983C84.495 18.8436 84.4918 20.1861 84.4884 21.532Z" fill="#126F43"/>
<path d="M126.42 54.0723C116.346 54.0723 106.272 53.9973 96.2023 54.1522C93.6025 54.1922 92.9626 53.2528 93.4525 50.9792C94.9874 49.4801 97.0972 49.0953 98.8821 48.0809C103.718 45.367 108.12 41.9444 111.941 37.9271C112.736 37.0826 113.386 35.8233 114.911 36.0382L126.42 54.0723Z" fill="#B1B1B1"/>
<path d="M88.9882 26.0892V80.0016C87.4883 80.5013 85.9884 80.3014 84.4885 80.0016C84.4885 73.9553 84.4885 73.9553 78.309 73.9553C68.2397 73.9553 58.1706 73.9553 48.1014 73.9553C47.2314 73.9553 46.2464 74.2951 45.5215 73.4556C46.7164 72.4262 48.1813 72.6511 49.5712 72.6461C59.5338 72.6261 69.4997 72.6261 79.4689 72.6461C80.3809 72.6878 81.2948 72.6444 82.1987 72.5162C82.8036 72.4062 83.3536 72.2063 83.3286 71.4468C83.3036 70.6873 82.7336 70.5323 82.1336 70.4474C81.2269 70.3316 80.312 70.2932 79.3988 70.3325C69.5996 70.3325 59.8004 70.3325 50.0011 70.3325C48.6312 70.3325 47.1413 70.6373 46.0014 69.468C46.8614 68.7034 47.9114 69.0383 48.8713 69.0383C59.9155 69.0383 70.9595 68.9783 82.0036 69.0632C84.0035 69.0632 84.5384 68.4936 84.5034 66.5298C84.4384 53.0079 84.5034 39.4811 84.5034 25.9593L88.9882 26.0892Z" fill="#126F43"/>
<path d="M114.911 36.0382C110.886 39.5361 107.446 43.7436 102.747 46.4719C99.747 48.2109 96.9173 50.2396 93.4526 50.9692C93.4276 46.1471 93.4526 41.325 93.3526 36.5029C93.3226 34.9289 93.9325 34.5341 95.4024 34.5441C101.562 34.5741 107.716 34.5042 113.876 34.4692L114.911 36.0382Z" fill="#DFDFDF"/>
<path d="M23.8935 4.53223C19.5688 4.53223 15.2492 4.47227 10.9295 4.56221C9.01966 4.60219 8.53465 3.77769 8.50465 2.01875C8.47466 0.259814 9.34964 0.0199585 10.8045 0.0199585C19.4488 0.0649313 28.0882 0.0799223 36.7326 0.0199585C38.3974 0.0199585 39.0574 0.414722 39.0873 2.22363C39.0873 4.16246 38.3974 4.61218 36.5875 4.56221C32.3679 4.45727 28.1281 4.53223 23.8935 4.53223Z" fill="#DADADA"/>
<path d="M127.881 73.5855C125.636 73.5855 123.381 73.4606 121.142 73.5855C119.347 73.6655 119.407 72.5861 119.372 71.3519C119.337 70.1176 119.647 69.3531 121.162 69.3981C123.401 69.488 125.661 69.3981 127.901 69.3981C127.896 70.7622 127.886 72.1714 127.881 73.5855Z" fill="#D9D9D9"/>
<path d="M4.48964 2.01379C4.78962 4.06755 3.80463 4.54226 2.05477 4.57723C0.304908 4.61221 0.0199984 3.85767 0 2.34859C0 0.719571 0.349919 -0.10493 2.19477 0.0149978C3.68966 0.10994 4.9846 0.0749614 4.48964 2.01379Z" fill="#DADADA"/>
<path d="M46.0057 69.3981C58.0548 69.3981 70.1038 69.4097 82.1529 69.433C83.5028 69.433 84.5327 69.4331 84.5477 71.3169C84.5627 73.2008 83.7928 73.4956 82.1679 73.4906C69.9539 73.4306 57.7398 73.4456 45.5258 73.4356C45.7207 72.0914 45.0408 70.6473 46.0057 69.3981Z" fill="#126F43"/>
<path d="M8.82022 73.4756C7.41533 73.4756 6.00048 73.3907 4.60558 73.4756C2.95571 73.6005 2.46574 72.9309 2.47074 71.3319C2.47574 69.7329 3.10064 69.3331 4.54553 69.3881C7.4403 69.463 10.3351 69.483 13.2299 69.3881C14.8998 69.3331 15.0898 70.1876 15.0898 71.5318C15.0898 72.876 14.7597 73.5306 13.2848 73.4756C11.81 73.4206 10.3051 73.4756 8.82022 73.4756Z" fill="#126F43"/>
<path d="M104.261 78.0028C106.381 77.5031 106.296 78.8123 106.401 80.2565C106.551 82.3802 105.341 82.3152 103.806 82.4252C101.586 82.5801 102.081 81.1359 101.941 79.8817C101.716 77.8879 102.826 77.718 104.261 78.0028Z" fill="#D0D3D6"/>
<path d="M32.4981 79.7518C32.6581 81.3608 32.7031 82.5201 30.6233 82.4302C28.9784 82.3602 28.0234 82.2003 28.0934 80.1815C28.1534 78.5725 28.4133 77.728 30.2582 77.9079C31.6231 78.0428 33.1381 77.748 32.4981 79.7518Z" fill="#D0D3D6"/>
</g>
<defs>
<clipPath id="clip0_433_312">
<rect width="128" height="91" fill="white"/>
</clipPath>
</defs>
</svg>

<svg width="128" height="91" fill="none" xmlns="http://www.w3.org/2000/svg"><g clip-path="url(#a)"><path d="m84.493 79.992-38.097.09c-1.66 0-3.324 0-5 .04-.924-.25-.904-1.08-1.08-1.784-1.219-4.787-4.999-8.11-9.383-8.21-5.225-.115-8.715 2.448-10.37 7.575-.275.844-.275 1.834-1.13 2.419-5.074 0-10.149-.095-15.223 0-1.675 0-2.125-.545-2.12-2.15.04-21.616.04-43.233 0-64.85 0-1.739.5-2.259 2.26-2.254 25.961.047 51.924.047 77.889 0 1.914 0 2.5.59 2.33 2.414-.14 1.4-.066 2.823-.08 4.237-1.35 1.16-3 .855-4.545.855-21.972.02-43.945.02-65.92 0a17.51 17.51 0 0 0-3.235.14c-.625.115-1.13.385-1.06 1.13.06.599.535.794 1.045.894a17.51 17.51 0 0 0 3.235.14h65.92c1.55 0 3.195-.31 4.55.839l.054 4.357c.76 1 .785 2.164.785 3.333v36.188c0 3.813-.5 4.248-4.394 4.253H50.2c-1 0-2-.13-2.95.26-1.335.9-1.35 1.899-.225 2.998.955.5 1.97.305 2.955.305h30.67c4.66.03 5.994 2.388 3.844 6.78Z" fill="#2ECC82"/><path d="M127.88 73.585c.345 6.497.345 6.497-6.164 6.497-2.22 0-4.44.025-6.66.04-.97-.725-.935-1.904-1.275-2.899-1.66-4.867-5.194-7.285-10.454-7.095-4.135.154-8.034 3.563-9.11 7.95-.189.774-.094 1.719-1.114 2.044l-4.115-.125c-.94-.925-.835-2.134-.835-3.278-.03-15.787-.03-31.571 0-47.352 0-1.15-.08-2.353.84-3.283 6 0 11.964 0 17.949-.1a2.5 2.5 0 0 1 2.425 1.334c1.47 2.409 3 4.773 4.499 7.156-.999 1.035-2.299.815-3.499.83-4.405.045-8.81 0-13.21.03-2.61.03-2.794.234-2.83 2.893-.064 4.232.07 8.465-.08 12.697.08 2.094 1.536 2.224 3.13 2.224h25.059c1.389 0 2.839-.16 3.999.91a5.724 5.724 0 0 1 1.575 4.462c-.125 3.602-.075 7.205-.095 10.813-1.195 1.264-2.765.735-4.189.855a17.176 17.176 0 0 0-2.21.124c-.61.125-1.065.405-1.065 1.13 0 .724.465 1 1.08 1.114 1.22.21 2.46.055 3.684.135.965.07 1.995-.065 2.665.894Z" fill="#126F43"/><path d="M93.103 80.126c.456-2.438.896-4.872 2.63-6.835 3.1-3.498 6.955-4.772 11.424-3.498 5.075 1.469 7.41 5.237 7.9 10.319-.445 4.997-2.73 8.714-7.655 10.288-4.464 1.43-8.344.195-11.524-3.238-1.845-1.974-2.335-4.492-2.775-7.036Zm-73.653-.004c.684-5.767 3.999-9.764 8.849-10.624a11.033 11.033 0 0 1 11.953 6.086c.715 1.46.64 3.063 1.165 4.538-.5 3.777-1.844 7.055-5.22 9.179-6.604 4.153-16.148.35-16.748-9.18Z" fill="#353535"/><path d="M84.488 21.532H11.14c-1.155 0-2.555.46-2.62-1.634-.055-1.834.5-2.453 2.38-2.433 9.56.084 19.124.034 28.688.04h44.911l-.01 4.027Z" fill="#126F43"/><path d="M126.42 54.072c-10.074 0-20.148-.075-30.218.08-2.6.04-3.24-.9-2.75-3.173 1.535-1.499 3.645-1.884 5.43-2.898a55.525 55.525 0 0 0 13.059-10.154c.795-.844 1.445-2.104 2.97-1.889l11.509 18.034Z" fill="#B1B1B1"/><path d="M88.988 26.09v53.912c-1.5.5-3 .3-4.5 0 0-6.047 0-6.047-6.179-6.047H48.101c-.87 0-1.855.34-2.58-.5 1.195-1.029 2.66-.804 4.05-.809 9.963-.02 19.929-.02 29.898 0 .912.042 1.826-.002 2.73-.13.605-.11 1.155-.31 1.13-1.07-.025-.759-.595-.914-1.195-.999a16.117 16.117 0 0 0-2.735-.115H50c-1.37 0-2.86.305-4-.864.86-.765 1.91-.43 2.87-.43 11.044 0 22.089-.06 33.133.025 2 0 2.534-.57 2.5-2.533-.066-13.522 0-27.049 0-40.57l4.484.13Z" fill="#126F43"/><path d="M114.911 36.038c-4.025 3.498-7.465 7.706-12.164 10.434-3 1.739-5.83 3.768-9.294 4.497-.025-4.822 0-9.644-.1-14.466-.03-1.574.58-1.969 2.05-1.959 6.159.03 12.313-.04 18.473-.075l1.035 1.57Z" fill="#DFDFDF"/><path d="M23.893 4.532c-4.324 0-8.644-.06-12.963.03-1.91.04-2.395-.784-2.425-2.543C8.475.259 9.35.02 10.805.02c8.644.045 17.283.06 25.928 0 1.664 0 2.324.395 2.354 2.204 0 1.938-.69 2.388-2.5 2.338-4.22-.105-8.459-.03-12.694-.03Z" fill="#DADADA"/><path d="M127.881 73.585c-2.245 0-4.5-.124-6.739 0-1.795.08-1.735-.999-1.77-2.233-.035-1.234.275-1.999 1.79-1.954 2.239.09 4.499 0 6.739 0-.005 1.364-.015 2.773-.02 4.188Z" fill="#D9D9D9"/><path d="M4.49 2.014c.3 2.054-.685 2.528-2.435 2.563C.305 4.612.02 3.857 0 2.35 0 .719.35-.105 2.195.015 3.69.11 4.985.075 4.49 2.014Z" fill="#DADADA"/><path d="M46.006 69.398c12.049 0 24.098.012 36.147.035 1.35 0 2.38 0 2.395 1.884.015 1.884-.755 2.179-2.38 2.174-12.214-.06-24.428-.045-36.642-.055.195-1.345-.485-2.789.48-4.038ZM8.82 73.476c-1.405 0-2.82-.085-4.214 0-1.65.124-2.14-.545-2.135-2.144.005-1.6.63-1.999 2.075-1.944 2.894.075 5.79.095 8.684 0 1.67-.055 1.86.8 1.86 2.144s-.33 1.999-1.805 1.944c-1.475-.055-2.98 0-4.465 0Z" fill="#126F43"/><path d="M104.261 78.003c2.12-.5 2.035.81 2.14 2.254.15 2.123-1.06 2.058-2.595 2.168-2.22.155-1.725-1.29-1.865-2.543-.225-1.994.885-2.164 2.32-1.88Zm-71.763 1.749c.16 1.609.205 2.768-1.875 2.678-1.645-.07-2.6-.23-2.53-2.249.06-1.608.32-2.453 2.165-2.273 1.365.135 2.88-.16 2.24 1.844Z" fill="#D0D3D6"/></g><defs><clipPath id="a"><path fill="#fff" d="M0 0h128v91H0z"/></clipPath></defs></svg>
